Newaita/actions/16/view-media-subtitles-hidden.svg

<svg height="16" viewBox="0 0 16 16" width="16" xmlns="http://www.w3.org/2000/svg"><g fill="#424242"><path d="m10.914062 10.710938h3.308594c.183594 0 .332032.148437.332032.328124v.664063c0 .179687-.148438.328125-.332032.328125h-3.308594c-.179687 0-.328124-.148438-.328124-.328125v-.664063c0-.179687.148437-.328124.328124-.328124zm0 0" fill-opacity=".392157"/><path d="m1.652344 13.355469h5.957031c.179687 0 .328125.148437.328125.332031v.660156c0 .183594-.148438.332032-.328125.332032h-5.957031c-.179688 0-.328125-.148438-.328125-.332032v-.660156c0-.183594.148437-.332031.328125-.332031zm0 0" fill-opacity=".392157"/><path d="m2.644531 1.449219c-.730469 0-1.320312.589843-1.320312 1.320312v6.617188h1.320312v-5.953125c0-.367188.296875-.664063.664063-.664063h9.261718c.363282 0 .660157.296875.660157.664063v5.953125h1.324219v-6.617188c0-.730469-.589844-1.320312-1.324219-1.320312zm0 0"/><g fill-opacity=".392157"><path d="m1.652344 10.710938h1.984375c.183593 0 .332031.148437.332031.328124v.664063c0 .179687-.148438.328125-.332031.328125h-1.984375c-.179688 0-.328125-.148438-.328125-.328125v-.664063c0-.179687.148437-.328124.328125-.328124zm0 0"/><path d="m5.292969 10.710938h3.96875c.183593 0 .332031.148437.332031.328124v.664063c0 .179687-.148438.328125-.332031.328125h-3.96875c-.183594 0-.332031-.148438-.332031-.328125v-.664063c0-.179687.148437-.328124.332031-.328124zm0 0"/><path d="m9.261719 13.355469h1.984375c.183594 0 .332031.148437.332031.332031v.660156c0 .183594-.148437.332032-.332031.332032h-1.984375c-.183594 0-.332031-.148438-.332031-.332032v-.660156c0-.183594.148437-.332031.332031-.332031zm0 0"/><path d="m12.898438 13.355469h1.324218c.183594 0 .332032.148437.332032.332031v.660156c0 .183594-.148438.332032-.332032.332032h-1.324218c-.179688 0-.328126-.148438-.328126-.332032v-.660156c0-.183594.148438-.332031.328126-.332031zm0 0"/></g></g></svg>

<svg xmlns="http://www.w3.org/2000/svg" xmlns:xlink="http://www.w3.org/1999/xlink" width="16px" height="16px" viewBox="0 0 16 16" version="1.1">
<g id="surface1">
<path style=" stroke:none;fill-rule:nonzero;fill:rgb(25.882354%,25.882354%,25.882354%);fill-opacity:0.392157;" d="M 10.914062 10.710938 L 14.222656 10.710938 C 14.40625 10.710938 14.554688 10.859375 14.554688 11.039062 L 14.554688 11.703125 C 14.554688 11.882812 14.40625 12.03125 14.222656 12.03125 L 10.914062 12.03125 C 10.734375 12.03125 10.585938 11.882812 10.585938 11.703125 L 10.585938 11.039062 C 10.585938 10.859375 10.734375 10.710938 10.914062 10.710938 Z M 10.914062 10.710938 "/>
<path style=" stroke:none;fill-rule:nonzero;fill:rgb(25.882354%,25.882354%,25.882354%);fill-opacity:0.392157;" d="M 1.652344 13.355469 L 7.609375 13.355469 C 7.789062 13.355469 7.9375 13.503906 7.9375 13.6875 L 7.9375 14.347656 C 7.9375 14.53125 7.789062 14.679688 7.609375 14.679688 L 1.652344 14.679688 C 1.472656 14.679688 1.324219 14.53125 1.324219 14.347656 L 1.324219 13.6875 C 1.324219 13.503906 1.472656 13.355469 1.652344 13.355469 Z M 1.652344 13.355469 "/>
     <defs>
  <style id="current-color-scheme" type="text/css">
   .ColorScheme-Text { color:#424242; } .ColorScheme-Highlight { color:#eeeeee; }
  </style>
 </defs>
<path style="fill:currentColor" class="ColorScheme-Text" d="M 2.644531 1.449219 C 1.914062 1.449219 1.324219 2.039062 1.324219 2.769531 L 1.324219 9.386719 L 2.644531 9.386719 L 2.644531 3.433594 C 2.644531 3.066406 2.941406 2.769531 3.308594 2.769531 L 12.570312 2.769531 C 12.933594 2.769531 13.230469 3.066406 13.230469 3.433594 L 13.230469 9.386719 L 14.554688 9.386719 L 14.554688 2.769531 C 14.554688 2.039062 13.964844 1.449219 13.230469 1.449219 Z M 2.644531 1.449219 "/>
<path style=" stroke:none;fill-rule:nonzero;fill:rgb(25.882354%,25.882354%,25.882354%);fill-opacity:0.392157;" d="M 1.652344 10.710938 L 3.636719 10.710938 C 3.820312 10.710938 3.96875 10.859375 3.96875 11.039062 L 3.96875 11.703125 C 3.96875 11.882812 3.820312 12.03125 3.636719 12.03125 L 1.652344 12.03125 C 1.472656 12.03125 1.324219 11.882812 1.324219 11.703125 L 1.324219 11.039062 C 1.324219 10.859375 1.472656 10.710938 1.652344 10.710938 Z M 1.652344 10.710938 "/>
<path style=" stroke:none;fill-rule:nonzero;fill:rgb(25.882354%,25.882354%,25.882354%);fill-opacity:0.392157;" d="M 5.292969 10.710938 L 9.261719 10.710938 C 9.445312 10.710938 9.59375 10.859375 9.59375 11.039062 L 9.59375 11.703125 C 9.59375 11.882812 9.445312 12.03125 9.261719 12.03125 L 5.292969 12.03125 C 5.109375 12.03125 4.960938 11.882812 4.960938 11.703125 L 4.960938 11.039062 C 4.960938 10.859375 5.109375 10.710938 5.292969 10.710938 Z M 5.292969 10.710938 "/>
<path style=" stroke:none;fill-rule:nonzero;fill:rgb(25.882354%,25.882354%,25.882354%);fill-opacity:0.392157;" d="M 9.261719 13.355469 L 11.246094 13.355469 C 11.429688 13.355469 11.578125 13.503906 11.578125 13.6875 L 11.578125 14.347656 C 11.578125 14.53125 11.429688 14.679688 11.246094 14.679688 L 9.261719 14.679688 C 9.078125 14.679688 8.929688 14.53125 8.929688 14.347656 L 8.929688 13.6875 C 8.929688 13.503906 9.078125 13.355469 9.261719 13.355469 Z M 9.261719 13.355469 "/>
<path style=" stroke:none;fill-rule:nonzero;fill:rgb(25.882354%,25.882354%,25.882354%);fill-opacity:0.392157;" d="M 12.898438 13.355469 L 14.222656 13.355469 C 14.40625 13.355469 14.554688 13.503906 14.554688 13.6875 L 14.554688 14.347656 C 14.554688 14.53125 14.40625 14.679688 14.222656 14.679688 L 12.898438 14.679688 C 12.71875 14.679688 12.570312 14.53125 12.570312 14.347656 L 12.570312 13.6875 C 12.570312 13.503906 12.71875 13.355469 12.898438 13.355469 Z M 12.898438 13.355469 "/>
</g>
</svg>
